X: 35643
T: Sailing Through The Narrows
R: waltz
M: 3/4
K: Gmajor
D2|:B2 B ABd|c2 E2 FG|A2 E3 G|FG/F/E DGA|
B2 BA (3Bcd|c2 E2 (3EFG|GF ED AB|1 G4 D2:|2 G4 GF||
|:E2 ED (3DEF|FG E2 FG|GF D2 A2-|ABA GFG|
E2 ED (3DEF|FG E2 (3EFG|GF ED AB|1 G4 F2:|2 G4 D2||

